app/src/main/assets/symbols/shopping/confectionery.svg

﻿<?xml version="1.0" encoding="UTF-8" standalone="no"?>
<!-- Created with Inkscape (http://www.inkscape.org/) -->

<svg
   xmlns:dc="http://purl.org/dc/elements/1.1/"
   xmlns:cc="http://creativecommons.org/ns#"
   xmlns:rdf="http://www.w3.org/1999/02/22-rdf-syntax-ns#"
   xmlns:svg="http://www.w3.org/2000/svg"
   xmlns="http://www.w3.org/2000/svg"
   version="1.1"
   width="14"
   height="14"
   viewBox="0 0 14 14"
   id="svg2">
  <defs
     id="defs3053" />
  <metadata
     id="metadata8">
    <rdf:RDF>
      <cc:Work
         rdf:about="">
        <dc:format>image/svg+xml</dc:format>
        <dc:type
           rdf:resource="http://purl.org/dc/dcmitype/StillImage" />
        <dc:title></dc:title>
      </cc:Work>
    </rdf:RDF>
  </metadata>
  <path
     d="M 0.40106652,7 C 0.38814368,6 2,4 4,4 5,4.0319271 6,5.5872292 7,5.5393387 8,5.6564044 9,3.9946789 10,4 12,4 13.571453,6 13.574494,7 13.265866,7 12.839985,7 12.531357,7 12,6 11,5.4873703 10,5.4455611 9,5.5519845 8,7.0053211 7,7 6,7.0266058 5,5.6085387 4,5.5393635 3,5.5119975 2,6 1.5793983,7 1.2335222,7 0.7469426,7 0.40106652,7 z M 9,2 C 9,3.1045695 8.1045695,4 7,4 5.8954305,4 5,3.1045695 5,2 5,0.8954305 5.8954305,0 7,0 7.9169484,0 8.7164405,0.62354577 8.939772,1.5128812 M 3,13 1,8 C 1.7198259,8.1439652 2.386627,8.8974868 3,9 3.4051047,9.067705 4.6285639,7.9642005 5,8 5.9356113,8.090175 6.2760392,8.9169674 7,9 7.7579429,9.08693 8.0697208,8.192843 9,8 c 0.4492744,-0.093133 1.378386,0.9467524 2,1 0.767967,0.065784 1.251963,-0.8503927 2,-1 l -2,5 c -1,1 -2,1 -4,1 -2,0 -3,0 -4,-1 z"
     id="path2986"
     style="fill:#ac39ac;fill-opacity:1;stroke:none" />
</svg>

<?xml version="1.0" encoding="UTF-8"?>
<svg version="1.1" viewBox="0 0 14 14" xmlns="http://www.w3.org/2000/svg" xmlns:cc="http://creativecommons.org/ns#" xmlns:dc="http://purl.org/dc/elements/1.1/" xmlns:rdf="http://www.w3.org/1999/02/22-rdf-syntax-ns#">
<metadata>
<rdf:RDF>
<cc:Work rdf:about="">
<dc:format>image/svg+xml</dc:format>
<dc:type rdf:resource="http://purl.org/dc/dcmitype/StillImage"/>
<dc:title/>
</cc:Work>
</rdf:RDF>
</metadata>
<path d="m0.40107 7c-0.012923-1 1.5989-3 3.5989-3 1 0.031927 2 1.5872 3 1.5393 1 0.11707 2-1.5447 3-1.5393 2 0 3.5715 2 3.5745 3h-1.0431c-0.53136-1-1.5314-1.5126-2.5314-1.5544-1 0.10642-2 1.5598-3 1.5544-1 0.026606-2-1.3915-3-1.4606-1-0.027366-2 0.46064-2.4206 1.4606h-1.1783zm8.5989-5c0 1.1046-0.89543 2-2 2s-2-0.89543-2-2 0.89543-2 2-2c0.91695 0 1.7164 0.62355 1.9398 1.5129m-5.9398 11.487-2-5c0.71983 0.14397 1.3866 0.89749 2 1 0.4051 0.067705 1.6286-1.0358 2-1 0.93561 0.090175 1.276 0.91697 2 1 0.75794 0.08693 1.0697-0.80716 2-1 0.44927-0.093133 1.3784 0.94675 2 1 0.76797 0.065784 1.252-0.85039 2-1l-2 5c-1 1-2 1-4 1s-3 0-4-1z" fill="#ac39ac"/>
</svg>
